Sources/FrostedUI/Resources/Icons.xcassets/dollarCircle16.imageset/dollar-circle-16.svg

<svg width="16" height="16" viewBox="0 0 16 16" fill="none" xmlns="http://www.w3.org/2000/svg" data-fui-icon="true">
  <path
    d="M8 0C12.4183 0 16 3.58172 16 8C16 12.4183 12.4183 16 8 16C3.58172 16 0 12.4183 0 8C0 3.58172 3.58172 0 8 0ZM8 1.5C4.41015 1.5 1.5 4.41015 1.5 8C1.5 11.5899 4.41015 14.5 8 14.5C11.5899 14.5 14.5 11.5899 14.5 8C14.5 4.41015 11.5899 1.5 8 1.5ZM8.00391 3.25C8.41808 3.25 8.75384 3.58584 8.75391 4V4.30176C9.38013 4.39971 10.1914 4.70556 10.6709 5.66406C10.8561 6.03447 10.7053 6.48561 10.335 6.6709C9.96461 6.85568 9.51427 6.7052 9.3291 6.33496C9.05494 5.78723 8.54074 5.75488 8.00488 5.75488C6.98738 5.75494 6.75049 6.3714 6.75 6.5C6.75005 6.64661 6.78265 6.71982 6.80762 6.75977C6.83538 6.80404 6.88773 6.86043 6.99707 6.92285C7.24943 7.06671 7.62126 7.15242 8.15527 7.26562C8.62067 7.36428 9.24953 7.49053 9.74707 7.77441C10.0124 7.92588 10.273 8.13891 10.4639 8.44336C10.6573 8.75224 10.7499 9.10956 10.75 9.5C10.7498 10.5386 9.89851 11.2211 8.75488 11.4268V11.8418C8.75482 12.2558 8.41884 12.5915 8.00488 12.5918C7.59074 12.5918 7.25495 12.2559 7.25488 11.8418V11.4014C7.09372 11.3665 6.92829 11.3246 6.7666 11.2715C6.33922 11.1309 5.83803 10.8985 5.46973 10.5303C5.17708 10.2374 5.1771 9.76258 5.46973 9.46973C5.76258 9.17711 6.23744 9.17708 6.53027 9.46973C6.66196 9.60133 6.91174 9.74026 7.23535 9.84668C7.55253 9.95094 7.84847 9.99411 8.00488 9.99414C8.57065 9.99413 8.90504 9.8623 9.0752 9.74219C9.23687 9.62791 9.2499 9.53184 9.25 9.5C9.24994 9.35312 9.21737 9.27915 9.19238 9.23926C9.16453 9.19506 9.11193 9.13935 9.00293 9.07715C8.75054 8.93325 8.37889 8.84663 7.84473 8.7334C7.37929 8.63474 6.75047 8.50951 6.25293 8.22559C5.9875 8.07408 5.72706 7.86123 5.53613 7.55664C5.34261 7.24772 5.25006 6.89052 5.25 6.5C5.25022 5.56077 6.01369 4.61613 7.25391 4.33887V4C7.25397 3.58602 7.58998 3.25029 8.00391 3.25Z"
    fill="currentColor"
  />
</svg>

<svg xmlns="http://www.w3.org/2000/svg" width="16" height="16" fill="none" data-fui-icon="true" viewBox="0 0 16 16"><path fill="currentColor" d="M8 0a8 8 0 1 1 0 16A8 8 0 0 1 8 0m0 1.5a6.5 6.5 0 1 0 0 13 6.5 6.5 0 0 0 0-13m.004 1.75a.75.75 0 0 1 .75.75v.302c.626.098 1.437.404 1.917 1.362a.751.751 0 0 1-1.342.671c-.274-.548-.788-.58-1.324-.58-1.018 0-1.255.616-1.255.745 0 .147.033.22.058.26.027.044.08.1.19.163.251.144.623.23 1.157.343.466.098 1.095.225 1.592.508.265.152.526.365.717.67.193.308.286.666.286 1.056 0 1.039-.851 1.721-1.995 1.927v.415a.75.75 0 0 1-1.5 0v-.44a5 5 0 0 1-.488-.13c-.428-.141-.929-.373-1.297-.742a.75.75 0 0 1 1.06-1.06c.132.131.382.27.705.377.318.104.613.147.77.147.566 0 .9-.132 1.07-.252.162-.114.175-.21.175-.242a.47.47 0 0 0-.058-.26.5.5 0 0 0-.19-.163c-.251-.144-.623-.23-1.157-.344-.466-.098-1.095-.223-1.592-.507a2 2 0 0 1-.717-.67A1.96 1.96 0 0 1 5.25 6.5c0-.94.764-1.884 2.004-2.161V4a.75.75 0 0 1 .75-.75"/></svg>
